X:58
T:God Save the Queen. WHG.057
R:air
S:W.H.Giles MS,Bampton,Oxfordshire,1839p60
O:England
H:donated by Mrs W.R.Kettlewell to VWML,Apr 1927.
A:Bampton, Oxfordshire
N:This “tune” is really just a bit of idle doodling.
N:Bar 6 is G4 in the MS. After the bars given, are
N:two bars |d2d2 d2|efgd.
Z:PJHeadford – VMP 2009
M:2/4
L:1/8
Q:1/4=120
K:G
G2G2 A>G|F3G A2|B2B2 c2|B3A G2|A2 {BcA}G2F2|G6{DEFG}||
e2e2 e2|{fgaf}e2d2 c2|d2d2 d2|d3c B2|c2 dcBA|]

